X: 134
T: Bai yin didi The rich young brother
L: 1/8
M: 2/4
K: C
GE2D/ E/ [I:setbarnb 1]| 
G A E D | 
AC2D | 
E G/ A/ G E | 
D E A G | 
C4 | 
GE2D/ E/ | 
C D/ E/ C A, | 
CE,2G, | 
A, G E3/ D/ | 
C A, D3/ C/ | 
G,4 |]

@@@ Tune index: 8802
